X: 70
T: No_32_My_Tapping_Stick.krn
N: Derived from No_32_My_Tapping_Stick.krn
%%abc-version 2.0
%%abcx-abcm2ps-target-version 5.9.1 (29 Sep 2008)
%%abc-creator hum2abc beta
%%abcx-conversion-date 2019/03/15 08:35:44
%%humdrum-veritas 2185888539
%%humdrum-veritas-data 2096892330
%%linebreak <none>
%%barnumbers 0
L: 1/8
M: 2/4
K: Eb clef=bass
[K:clef=bass][M:2/4]z2E,E, ]|:  
F,2F, z ||  
[M:3/4]B,A, G,F, E,F, | 
E,2C,C, E, z ||  
[M:2/4]F,2E,C, | 
B,, zC,2 | 
E,2F,E, | 
C,2B,,B,, | 
B,,4 | 
B,, z E,E, :|]  
B,,2z2 |]  



